Assets/SVGs/office.svg

<?xml version="1.0" encoding="utf-8"?>
<!-- Generator: Adobe Illustrator 22.0.0, SVG Export Plug-In . SVG Version: 6.00 Build 0)  -->
<svg version="1.1" id="Layer_1" xmlns="http://www.w3.org/2000/svg" xmlns:xlink="http://www.w3.org/1999/xlink" x="0px" y="0px"
	 viewBox="0 0 23 22" style="enable-background:new 0 0 23 22;" xml:space="preserve">
<style type="text/css">
	.st0{fill:#2399A6;}
</style>
<title>office</title>
<path class="st0" d="M12,6V0H0v22h23V6H12z M5,20H2v-3h3V20z M5,15H2v-3h3V15z M5,10H2V7h3V10z M5,5H2V2h3V5z M10,20H7v-3h3V20z
	 M10,15H7v-3h3V15z M10,10H7V7h3V10z M10,5H7V2h3V5z M21,20h-9v-2h2v-3h-2v-2h2v-3h-2V8h9V20z M19,10h-3v3h3V10z M19,15h-3v3h3V15z"
	/>
</svg>

<svg xmlns="http://www.w3.org/2000/svg" width="23" height="22" viewBox="0 0 23 22"><title>office</title><path d="M12,6V0H0V22H23V6ZM5,20H2V17H5Zm0-5H2V12H5Zm0-5H2V7H5ZM5,5H2V2H5Zm5,15H7V17h3Zm0-5H7V12h3Zm0-5H7V7h3Zm0-5H7V2h3ZM21,20H12V18h2V15H12V13h2V10H12V8h9ZM19,10H16v3h3Zm0,5H16v3h3Z"/></svg>
